X:1
T:Oh mak' my Bed easy
M:3/4
L:1/8
K:F
G-A| B2 d2d-c| B2 c2B-c| d2 G2G-F| D4B-A| G2 B2D-C| B,2 C2B,-C| D2 B2 A2|\
 G4||
